public/images/calendar.svg

<svg width="19.5" height="21.5" fill="none" xmlns="http://www.w3.org/2000/svg"><path d="M.84 8.15h17.82m-4.47 3.9h.01m-4.45 0h.01m-4.46 0h.01m8.88 3.89h.01m-4.45 0h.01m-4.46 0h.01M13.79.75v3.29M5.71.75v3.29m-.19-1.72C2.58 2.32.75 3.96.75 6.97v9.05c0 3.05 1.83 4.73 4.77 4.73h8.45c2.95 0 4.78-1.65 4.78-4.66V6.97c0-3.01-1.82-4.65-4.77-4.65H5.52z" stroke="#1B31FF" stroke-width="1.5" stroke-linejoin="round" stroke-linecap="round"/></svg>

<svg width="19.500000" height="21.500000" viewBox="0 0 19.5 21.5" fill="none" xmlns="http://www.w3.org/2000/svg" xmlns:xlink="http://www.w3.org/1999/xlink">
	<desc>
			Created with Pixso.
	</desc>
	<defs/>
	<path id="Vector" d="M0.84 8.15L18.66 8.15M14.19 12.05L14.2 12.05M9.75 12.05L9.76 12.05M5.3 12.05L5.31 12.05M14.19 15.94L14.2 15.94M9.75 15.94L9.76 15.94M5.3 15.94L5.31 15.94M13.79 0.75L13.79 4.04M5.71 0.75L5.71 4.04M5.52 2.32C2.58 2.32 0.75 3.96 0.75 6.97L0.75 16.02C0.75 19.07 2.58 20.75 5.52 20.75L13.97 20.75C16.92 20.75 18.75 19.1 18.75 16.09L18.75 6.97C18.75 3.96 16.93 2.32 13.98 2.32L5.52 2.32Z" stroke="#1B31FF" stroke-opacity="1.000000" stroke-width="1.500000" stroke-linejoin="round" stroke-linecap="round"/>
</svg>
